X:195
T:Morning Star, The
R:reel
D:Bothy Band: Out of the Wind, Into the Sun
Z:id:hn-reel-146
M:C|
K:G
~B3A BGEF|GABd efgd|~B3A BGED|GBAF ~G3A|
(3BcB Ac BGEF|G2Bd edgd|(3BcB Ac BGEF|GBAF ~G3A||
(3Bcd ef gfeg|fedf eBBA|(3Bcd ef g2eg|fedf ~e3d|
Bdef gbeg|fedf edBA|Bdd^c d2ef|g2af gfed||
